doc/libDXF-logo.svg

<?xml version="1.0" encoding="UTF-8" standalone="no"?>
<!-- Created with Inkscape (http://www.inkscape.org/) -->

<svg
   xmlns:dc="http://purl.org/dc/elements/1.1/"
   xmlns:cc="http://creativecommons.org/ns#"
   xmlns:rdf="http://www.w3.org/1999/02/22-rdf-syntax-ns#"
   xmlns:svg="http://www.w3.org/2000/svg"
   xmlns="http://www.w3.org/2000/svg"
   version="1.1"
   width="128"
   height="128"
   viewBox="0 0 128 128"
   id="svg2"
   xml:space="preserve"
   style="overflow:visible"><metadata
   id="metadata28"><rdf:RDF><cc:Work
       rdf:about=""><dc:format>image/svg+xml</dc:format><dc:type
         rdf:resource="http://purl.org/dc/dcmitype/StillImage" /><dc:title></dc:title></cc:Work></rdf:RDF></metadata><defs
   id="defs85" />
	
	
	
	<linearGradient
   x1="74.5"
   y1="5.0482998"
   x2="74.5"
   y2="124.2407"
   id="XMLID_6_"
   gradientUnits="userSpaceOnUse">
		<stop
   id="stop11"
   style="stop-color:#ffffff;stop-opacity:1"
   offset="0" />
		<stop
   id="stop13"
   style="stop-color:#e1e1df;stop-opacity:1"
   offset="1" />
	</linearGradient>
	
	<linearGradient
   x1="74.5"
   y1="11.0815"
   x2="74.5"
   y2="121.4677"
   id="XMLID_7_"
   gradientUnits="userSpaceOnUse">
		<stop
   id="stop18"
   style="stop-color:#fdfdfd;stop-opacity:1"
   offset="0" />
		<stop
   id="stop20"
   style="stop-color:#f3f2f2;stop-opacity:1"
   offset="0.2985" />
		<stop
   id="stop22"
   style="stop-color:#d7d6d6;stop-opacity:1"
   offset="0.81739998" />
		<stop
   id="stop24"
   style="stop-color:#cccbca;stop-opacity:1"
   offset="1" />
	</linearGradient>
	
	<radialGradient
   cx="110"
   cy="32.869598"
   r="15.596"
   id="XMLID_8_"
   gradientUnits="userSpaceOnUse">
		<stop
   id="stop29"
   style="stop-color:#8e8e8f;stop-opacity:1"
   offset="0.21349999" />
		<stop
   id="stop31"
   style="stop-color:#eeeeee;stop-opacity:1"
   offset="0.92699999" />
	</radialGradient>
	
	
	<linearGradient
   x1="92.023399"
   y1="9.9473"
   x2="104.2735"
   y2="32.947201"
   id="XMLID_9_"
   gradientUnits="userSpaceOnUse">
		<stop
   id="stop38"
   style="stop-color:#fffefe;stop-opacity:1"
   offset="0" />
		<stop
   id="stop40"
   style="stop-color:#cfd0d0;stop-opacity:1"
   offset="1" />
	</linearGradient>
	
	<linearGradient
   x1="99.530296"
   y1="5.1816001"
   x2="105.9051"
   y2="31.931"
   id="XMLID_10_"
   gradientUnits="userSpaceOnUse">
		<stop
   id="stop45"
   style="stop-color:#fcfdfd;stop-opacity:1"
   offset="0" />
		<stop
   id="stop47"
   style="stop-color:#eeeeee;stop-opacity:1"
   offset="1" />
	</linearGradient>
	
	
	
	
	
	
	
	
	
	
	
	
	<path
   d="m 7.6875,20.5 0,98.09375 -3.125,1.75 0.09375,0.21875 3.03125,-1.65625 0,6.65625 0.03125,0 0,-6.6875 L 8,118.71875 l 2.875,-1.625 -0.125,-0.1875 -3.03125,1.6875 0,-98.09375 -0.03125,0 z M 8,118.71875 l 0,0.0313 112.28125,0 0,-0.0313 -112.28125,0 z m 112.9375,-38.65625 0,38.5 -3.15625,1.75 0.125,0.1875 3.03125,-1.6875 0,6.75 0.0313,0 0,-6.75 3.125,-1.75 -0.0937,-0.21875 -3.03125,1.6875 0,-38.46875 -0.0313,0 z"
   id="rect3748"
   style="fill:#000000;fill-opacity:1;stroke:#000000;stroke-width:1.01555693;stroke-miterlimit:4;stroke-opacity:1;stroke-dasharray:none;stroke-dashoffset:0" /><rect
   width="128.0098"
   height="0.97689486"
   x="16.608816"
   y="13.405474"
   transform="matrix(0.88207947,0.47110063,-0.46164622,0.88706413,0,0)"
   id="rect2850"
   style="fill:#000000;stroke:#000000;stroke-width:1.10003138;stroke-miterlimit:4;stroke-opacity:1;stroke-dasharray:none" />
	
	
<text
   x="9.1154366"
   y="112.25262"
   transform="scale(0.97876606,1.0216946)"
   id="text2895"
   xml:space="preserve"
   style="font-size:35.09520721px;font-style:normal;font-weight:normal;line-height:125%;letter-spacing:0px;word-spacing:0px;fill:#000000;fill-opacity:1;stroke:none;font-family:Sans"><tspan
     x="9.1154366"
     y="112.25262"
     id="tspan2897">libDXF</tspan></text>








<path
   d="m 95.68041,11.237193 0.116165,-1.4755607 0,0 C 106.79824,10.627764 115.02997,20.054618 114.18267,30.81711 113.33537,41.579602 103.7299,49.602191 92.728239,48.736064 81.72658,47.869937 73.494844,38.443079 74.342141,27.680584 75.182074,17.01168 84.635685,9.0166323 95.551194,9.7437996 l -0.09212,1.3942054"
   id="path2870"
   style="fill:none;stroke:#000000;stroke-width:2;stroke-miterlimit:4;stroke-opacity:1;stroke-dasharray:4.00000001, 4.00000001;stroke-dashoffset:0" /><rect
   width="6"
   height="6"
   x="91.407242"
   y="26.248869"
   id="rect81-6"
   style="fill:#0000ff;overflow:visible" /><rect
   width="6"
   height="6"
   x="91.407249"
   y="6.5565634"
   id="rect81-5"
   style="fill:#0000ff;overflow:visible" /><rect
   width="6"
   height="6"
   x="4.622262"
   y="17.561085"
   id="rect81"
   style="fill:#0000ff;overflow:visible" /><rect
   width="6"
   height="6"
   x="118.04977"
   y="76.927605"
   id="rect81-1"
   style="fill:#0000ff;overflow:visible" /></svg>

<?xml version="1.0" encoding="UTF-8" standalone="no"?>
<!-- Created with Inkscape (http://www.inkscape.org/) -->

<svg
   xmlns:dc="http://purl.org/dc/elements/1.1/"
   xmlns:cc="http://creativecommons.org/ns#"
   xmlns:rdf="http://www.w3.org/1999/02/22-rdf-syntax-ns#"
   xmlns:svg="http://www.w3.org/2000/svg"
   xmlns="http://www.w3.org/2000/svg"
   xmlns:sodipodi="http://sodipodi.sourceforge.net/DTD/sodipodi-0.dtd"
   xmlns:inkscape="http://www.inkscape.org/namespaces/inkscape"
   version="1.1"
   width="128"
   height="128"
   viewBox="0 0 128 128"
   id="svg2"
   xml:space="preserve"
   style="overflow:visible"
   inkscape:version="0.47 r22583"
   sodipodi:docname="libDXF-logo3.svg"><metadata
   id="metadata28"><rdf:RDF><cc:Work
       rdf:about=""><dc:format>image/svg+xml</dc:format><dc:type
         rdf:resource="http://purl.org/dc/dcmitype/StillImage" /><dc:title /></cc:Work></rdf:RDF></metadata><sodipodi:namedview
   pagecolor="#ffffff"
   bordercolor="#666666"
   borderopacity="1"
   objecttolerance="10"
   gridtolerance="10"
   guidetolerance="10"
   inkscape:pageopacity="0"
   inkscape:pageshadow="2"
   inkscape:window-width="1024"
   inkscape:window-height="696"
   id="namedview26"
   showgrid="false"
   inkscape:zoom="3.453125"
   inkscape:cx="64"
   inkscape:cy="62.841628"
   inkscape:window-x="0"
   inkscape:window-y="25"
   inkscape:window-maximized="1"
   inkscape:current-layer="svg2" /><defs
   id="defs85"><inkscape:perspective
     sodipodi:type="inkscape:persp3d"
     inkscape:vp_x="0 : 64 : 1"
     inkscape:vp_y="0 : 1000 : 0"
     inkscape:vp_z="128 : 64 : 1"
     inkscape:persp3d-origin="64 : 42.666667 : 1"
     id="perspective30" /><inkscape:perspective
     id="perspective2844"
     inkscape:persp3d-origin="0.5 : 0.33333333 : 1"
     inkscape:vp_z="1 : 0.5 : 1"
     inkscape:vp_y="0 : 1000 : 0"
     inkscape:vp_x="0 : 0.5 : 1"
     sodipodi:type="inkscape:persp3d" /><inkscape:perspective
     id="perspective2844-0"
     inkscape:persp3d-origin="0.5 : 0.33333333 : 1"
     inkscape:vp_z="1 : 0.5 : 1"
     inkscape:vp_y="0 : 1000 : 0"
     inkscape:vp_x="0 : 0.5 : 1"
     sodipodi:type="inkscape:persp3d" /><inkscape:perspective
     id="perspective2844-2"
     inkscape:persp3d-origin="0.5 : 0.33333333 : 1"
     inkscape:vp_z="1 : 0.5 : 1"
     inkscape:vp_y="0 : 1000 : 0"
     inkscape:vp_x="0 : 0.5 : 1"
     sodipodi:type="inkscape:persp3d" /><inkscape:perspective
     id="perspective2844-9"
     inkscape:persp3d-origin="0.5 : 0.33333333 : 1"
     inkscape:vp_z="1 : 0.5 : 1"
     inkscape:vp_y="0 : 1000 : 0"
     inkscape:vp_x="0 : 0.5 : 1"
     sodipodi:type="inkscape:persp3d" /><inkscape:perspective
     id="perspective2844-23"
     inkscape:persp3d-origin="0.5 : 0.33333333 : 1"
     inkscape:vp_z="1 : 0.5 : 1"
     inkscape:vp_y="0 : 1000 : 0"
     inkscape:vp_x="0 : 0.5 : 1"
     sodipodi:type="inkscape:persp3d" /><inkscape:perspective
     id="perspective2844-02"
     inkscape:persp3d-origin="0.5 : 0.33333333 : 1"
     inkscape:vp_z="1 : 0.5 : 1"
     inkscape:vp_y="0 : 1000 : 0"
     inkscape:vp_x="0 : 0.5 : 1"
     sodipodi:type="inkscape:persp3d" /><inkscape:perspective
     id="perspective2844-08"
     inkscape:persp3d-origin="0.5 : 0.33333333 : 1"
     inkscape:vp_z="1 : 0.5 : 1"
     inkscape:vp_y="0 : 1000 : 0"
     inkscape:vp_x="0 : 0.5 : 1"
     sodipodi:type="inkscape:persp3d" /><inkscape:perspective
     id="perspective2844-7"
     inkscape:persp3d-origin="0.5 : 0.33333333 : 1"
     inkscape:vp_z="1 : 0.5 : 1"
     inkscape:vp_y="0 : 1000 : 0"
     inkscape:vp_x="0 : 0.5 : 1"
     sodipodi:type="inkscape:persp3d" /><inkscape:perspective
     id="perspective3703"
     inkscape:persp3d-origin="0.5 : 0.33333333 : 1"
     inkscape:vp_z="1 : 0.5 : 1"
     inkscape:vp_y="0 : 1000 : 0"
     inkscape:vp_x="0 : 0.5 : 1"
     sodipodi:type="inkscape:persp3d" /><inkscape:perspective
     id="perspective3703-5"
     inkscape:persp3d-origin="0.5 : 0.33333333 : 1"
     inkscape:vp_z="1 : 0.5 : 1"
     inkscape:vp_y="0 : 1000 : 0"
     inkscape:vp_x="0 : 0.5 : 1"
     sodipodi:type="inkscape:persp3d" /><inkscape:perspective
     id="perspective3703-7"
     inkscape:persp3d-origin="0.5 : 0.33333333 : 1"
     inkscape:vp_z="1 : 0.5 : 1"
     inkscape:vp_y="0 : 1000 : 0"
     inkscape:vp_x="0 : 0.5 : 1"
     sodipodi:type="inkscape:persp3d" /><inkscape:perspective
     id="perspective3703-4"
     inkscape:persp3d-origin="0.5 : 0.33333333 : 1"
     inkscape:vp_z="1 : 0.5 : 1"
     inkscape:vp_y="0 : 1000 : 0"
     inkscape:vp_x="0 : 0.5 : 1"
     sodipodi:type="inkscape:persp3d" /><inkscape:perspective
     id="perspective3758"
     inkscape:persp3d-origin="0.5 : 0.33333333 : 1"
     inkscape:vp_z="1 : 0.5 : 1"
     inkscape:vp_y="0 : 1000 : 0"
     inkscape:vp_x="0 : 0.5 : 1"
     sodipodi:type="inkscape:persp3d" /><inkscape:perspective
     id="perspective3780"
     inkscape:persp3d-origin="0.5 : 0.33333333 : 1"
     inkscape:vp_z="1 : 0.5 : 1"
     inkscape:vp_y="0 : 1000 : 0"
     inkscape:vp_x="0 : 0.5 : 1"
     sodipodi:type="inkscape:persp3d" /><inkscape:perspective
     id="perspective3806"
     inkscape:persp3d-origin="0.5 : 0.33333333 : 1"
     inkscape:vp_z="1 : 0.5 : 1"
     inkscape:vp_y="0 : 1000 : 0"
     inkscape:vp_x="0 : 0.5 : 1"
     sodipodi:type="inkscape:persp3d" /><inkscape:perspective
     id="perspective3828"
     inkscape:persp3d-origin="0.5 : 0.33333333 : 1"
     inkscape:vp_z="1 : 0.5 : 1"
     inkscape:vp_y="0 : 1000 : 0"
     inkscape:vp_x="0 : 0.5 : 1"
     sodipodi:type="inkscape:persp3d" /></defs>
	
	
	
	<linearGradient
   x1="74.5"
   y1="5.0482998"
   x2="74.5"
   y2="124.2407"
   id="XMLID_6_"
   gradientUnits="userSpaceOnUse">
		<stop
   id="stop11"
   style="stop-color:#ffffff;stop-opacity:1"
   offset="0" />
		<stop
   id="stop13"
   style="stop-color:#e1e1df;stop-opacity:1"
   offset="1" />
	</linearGradient>
	
	<linearGradient
   x1="74.5"
   y1="11.0815"
   x2="74.5"
   y2="121.4677"
   id="XMLID_7_"
   gradientUnits="userSpaceOnUse">
		<stop
   id="stop18"
   style="stop-color:#fdfdfd;stop-opacity:1"
   offset="0" />
		<stop
   id="stop20"
   style="stop-color:#f3f2f2;stop-opacity:1"
   offset="0.2985" />
		<stop
   id="stop22"
   style="stop-color:#d7d6d6;stop-opacity:1"
   offset="0.81739998" />
		<stop
   id="stop24"
   style="stop-color:#cccbca;stop-opacity:1"
   offset="1" />
	</linearGradient>
	
	<radialGradient
   cx="110"
   cy="32.869598"
   r="15.596"
   id="XMLID_8_"
   gradientUnits="userSpaceOnUse">
		<stop
   id="stop29"
   style="stop-color:#8e8e8f;stop-opacity:1"
   offset="0.21349999" />
		<stop
   id="stop31"
   style="stop-color:#eeeeee;stop-opacity:1"
   offset="0.92699999" />
	</radialGradient>
	
	
	<linearGradient
   x1="92.023399"
   y1="9.9473"
   x2="104.2735"
   y2="32.947201"
   id="XMLID_9_"
   gradientUnits="userSpaceOnUse">
		<stop
   id="stop38"
   style="stop-color:#fffefe;stop-opacity:1"
   offset="0" />
		<stop
   id="stop40"
   style="stop-color:#cfd0d0;stop-opacity:1"
   offset="1" />
	</linearGradient>
	
	<linearGradient
   x1="99.530296"
   y1="5.1816001"
   x2="105.9051"
   y2="31.931"
   id="XMLID_10_"
   gradientUnits="userSpaceOnUse">
		<stop
   id="stop45"
   style="stop-color:#fcfdfd;stop-opacity:1"
   offset="0" />
		<stop
   id="stop47"
   style="stop-color:#eeeeee;stop-opacity:1"
   offset="1" />
	</linearGradient>
	
	
	
	
	
	
	
	
	
	
	
	
	<path
   style="fill:#000000;fill-opacity:1;stroke:#000000;stroke-width:1.01555693;stroke-miterlimit:4;stroke-opacity:1;stroke-dasharray:none;stroke-dashoffset:0"
   d="M 7.6875 20.5 L 7.6875 118.59375 L 4.5625 120.34375 L 4.65625 120.5625 L 7.6875 118.90625 L 7.6875 125.5625 L 7.71875 125.5625 L 7.71875 118.875 L 8 118.71875 L 10.875 117.09375 L 10.75 116.90625 L 7.71875 118.59375 L 7.71875 20.5 L 7.6875 20.5 z M 8 118.71875 L 8 118.75 L 120.28125 118.75 L 120.28125 118.71875 L 8 118.71875 z M 120.9375 80.0625 L 120.9375 118.5625 L 117.78125 120.3125 L 117.90625 120.5 L 120.9375 118.8125 L 120.9375 125.5625 L 120.96875 125.5625 L 120.96875 118.8125 L 124.09375 117.0625 L 124 116.84375 L 120.96875 118.53125 L 120.96875 80.0625 L 120.9375 80.0625 z "
   id="rect3748" /><rect
   width="128.0098"
   height="0.97689486"
   x="16.608816"
   y="13.405474"
   transform="matrix(0.88207947,0.47110063,-0.46164622,0.88706413,0,0)"
   id="rect2850"
   style="fill:#000000;stroke:#000000;stroke-width:1.10003142;stroke-opacity:1;stroke-miterlimit:4;stroke-dasharray:none" />
	
	
<text
   x="9.1154366"
   y="112.25262"
   transform="scale(0.97876606,1.0216946)"
   id="text2895"
   xml:space="preserve"
   style="font-size:35.09520721px;font-style:normal;font-weight:normal;line-height:125%;letter-spacing:0px;word-spacing:0px;fill:#000000;fill-opacity:1;stroke:none;font-family:Sans"
   sodipodi:linespacing="125%"><tspan
     x="9.1154366"
     y="112.25262"
     id="tspan2897">libDXF</tspan></text>







<path
   style="fill:none;stroke:#000000;stroke-width:2;stroke-miterlimit:4;stroke-opacity:1;stroke-dasharray:4.00000001, 4.00000001;stroke-dashoffset:0"
   d="m 95.68041,11.237193 0.116165,-1.4755607 0,0 C 106.79824,10.627764 115.02997,20.054618 114.18267,30.81711 113.33537,41.579602 103.7299,49.602191 92.728239,48.736064 81.72658,47.869937 73.494844,38.443079 74.342141,27.680584 75.182074,17.01168 84.635685,9.0166323 95.551194,9.7437996 l -0.09212,1.3942054"
   id="path2870" /><rect
   width="6"
   height="6"
   x="91.407242"
   y="26.248869"
   id="rect81-6"
   style="fill:#0000ff;overflow:visible" /><rect
   width="6"
   height="6"
   x="91.407249"
   y="6.5565634"
   id="rect81-5"
   style="fill:#0000ff;overflow:visible" /><rect
   width="6"
   height="6"
   x="5.1085978"
   y="17.561085"
   id="rect81"
   style="fill:#0000ff;overflow:visible" /><rect
   width="6"
   height="6"
   x="118.04977"
   y="76.927605"
   id="rect81-1"
   style="fill:#0000ff;overflow:visible" /></svg>
